!!!OTL: ALL MEIN GEDANKEN
!!!ARE: Europa, Mitteleuropa, Deutschland
!!!SCT: E1646
!!!YEM: Copyright 1995, estate of Helmut Schaffrath.
**kern
*ICvox
*Ivox
*M4/4
*k[b-]
*F:
{4f
=1
4f
4f
4a
4a
=2
4dd
4dd
4.cc}
{8cc
=3
2a
2g
=4
2f
4r}
{4f
=5
4f
4f
4a
4a
=6
4dd
4dd
4.cc}
{8cc
=7
2a
2g
=8
2f
2r}
=9
{2e
4.f
8f
=10
4a
4a
4g
4g
=11
2d
2c}
=12
{4a
4g
4a
4b-
=13
4cc
4dd
4cc}
{4b-
=14
4a
4f
4e
4d
=15
2a
2g
=16
2f
4r}
==
!!!AGN: Staende -, Hofe -, Ritter - Lied, Liebe
!!!ONB: ESAC (Essen Associative Code) Database: ERK3
!!!AMT: simple quadruple
!!!AIN: vox
!!!EED: Helmut Schaffrath
!!!EEV: 1.0
*-
